src/brand-fastft.svg

<?xml version="1.0" encoding="UTF-8" standalone="no"?>
<svg width="189px" height="50px" viewBox="0 0 189 50" version="1.1" xmlns="http://www.w3.org/2000/svg" xmlns:xlink="http://www.w3.org/1999/xlink">
    <!-- Generator: Sketch 3.8.2 (29753) - http://www.bohemiancoding.com/sketch -->
    <title>fastFT-logo-color</title>
    <desc>Created with Sketch.</desc>
    <defs></defs>
    <g id="Page-1" stroke="none" stroke-width="1" fill="none" fill-rule="evenodd">
        <g id="Artboard-1" transform="translate(-12.000000, -5.000000)">
            <g id="fastFT-logo-color" transform="translate(12.000000, 5.000000)">
                <path d="M0.811877675,50 L4.76227951,27.634265 L0,27.634265 L1.1364367,21.3440809 L5.89871621,21.3440809 L6.33178165,18.7098159 C7.14365933,13.9249261 9.2,10 17.480096,10 C19.2118777,10 22.5126813,10.269007 23,10.4302204 L21.9178165,16.4518745 C21.4847511,16.2901841 20.1860349,16.1289707 18.8868385,16.1289707 C17.2097902,16.1289707 15.3152489,16.6665077 14.8826636,19.73147 L14.6123578,21.3440809 L20.7271266,21.3440809 L19.5902098,27.634265 L13.4216679,27.634265 L9.47078593,50 L0.811877675,50" id="Fill-1" fill="#C0282E"></path>
                <path d="M34.803804,41.2264991 L35.7519881,35.9206377 C28.745987,36.3396442 25.6388031,38.1792642 25.6388031,41.0680317 C25.6388031,42.5921152 26.7444727,43.6426608 28.8520678,43.6426608 C31.2746338,43.6426608 33.1181953,42.6447823 34.803804,41.2264991 L34.803804,41.2264991 Z M17,42.9062535 C17,35.7099693 23.3732553,32.0852606 36.5422194,31.4546536 L36.6473655,30.7718455 C37.0160778,28.6702882 36.068361,27.3568731 33.0130492,27.3568731 C30.4315958,27.3568731 27.0603783,28.4074187 24.1634866,29.9310361 L21.3189342,24.6773758 C24.0055338,22.839154 29.0095532,21 34.7514646,21 C43.7061733,21 45.9707866,25.6761865 44.6543575,32.5051992 L42.8103286,42.7491844 C42.2841308,45.7959531 42.072904,47.2156346 42.3888096,49.5800614 L33.9612333,49.5800614 C33.8032805,48.1603799 33.8032805,46.9527651 34.0668467,45.4822809 C31.2222944,48.4232494 28.0090297,50 24.7957651,50 C20.2132646,50 17,47.1620353 17,42.9062535 L17,42.9062535 Z" id="Fill-4" fill="#C0282E"></path>
                <path d="M45,45.4013875 L49.3900801,40.9599252 C51.5312118,42.9987052 54.9575926,44.6184181 58.9729271,44.6184181 C61.1682046,44.6184181 63.2019948,43.9388248 63.2019948,41.7962051 C63.2019948,37.459046 49.0690053,39.3930592 49.0690053,30.5620544 C49.0690053,23.7698296 54.9043968,21 60.2045054,21 C66.6288506,21 70.2152938,22.6201765 73,24.9185556 L68.9841905,29.6219348 C66.7361922,27.793152 63.8982901,26.6434988 60.7929841,26.6434988 C58.8128647,26.6434988 57.3670783,27.4269318 57.3670783,29.2037949 C57.3670783,33.5924102 71.5542136,31.7117075 71.5542136,40.1245724 C71.5542136,48.2236005 64.0056317,50 58.8660605,50 C51.5853576,50 47.4631565,47.9616836 45,45.4013875" id="Fill-5" fill="#C0282E"></path>
                <path d="M78.5738191,27.1822053 L74,27.1822053 L75.0915739,20.8710734 L79.6658541,20.8710734 L81.3292707,11 L89.6463535,11 L88.0345873,20.8710734 L95,20.8710734 L93.9084261,27.1822053 L86.8909019,27.1822053 L84.8119771,39.5350447 C84.2922459,42.717888 84.8119771,43.6879111 87.878714,43.6879111 C88.7623032,43.6879111 89.9581,43.5802371 90.581593,43.3653676 L89.6980038,49.5137921 C89.0740497,49.7296186 86.1115357,50 84.3443573,50 C75.9751631,50 75.3000198,46.385025 76.1831478,40.9371994 L78.5738191,27.1822053 Z" id="Fill-6" fill="#C0282E"></path>
                <path d="M100,48.3894219 C101.31452,48.2433156 104.747336,47.8770759 105.6969,47.5118103 C107.451213,46.852384 107.961956,45.5340184 107.961956,43.9244144 L107.961956,6.58793162 C107.961956,4.97784055 107.523135,3.73398919 105.6969,3.00053572 C104.309973,2.41464959 101.31452,1.75668436 100,1.61009107 L100,0 L142,0 L142,12.516924 L140.101843,12.516924 C139.152279,9.2236887 135.354507,2.85442946 131.847825,2.41464959 C130.09497,2.19549019 128.19487,2.12195003 125.857892,2.12195003 L117.676768,2.12195003 L117.676768,23.2791117 L123.228366,23.2791117 C127.026138,23.2791117 128.706585,22.0337992 129.657121,21.0826474 C130.970669,19.8383091 131.919747,16.6166659 132.212295,14.2015292 L134.185775,14.2015292 L134.185775,34.9934252 L132.212295,34.9934252 C131.993613,32.796474 130.825853,28.7692982 129.657121,27.5985 C128.706585,26.573808 126.807456,25.4760629 123.228366,25.4760629 L117.676768,25.4760629 L117.676768,43.6312278 C117.676768,45.2413189 118.261377,46.4861443 119.867958,47.2191107 C120.7456,47.5843764 124.030685,48.2433156 125.34812,48.3894219 L125.34812,50 L100,50 L100,48.3894219" id="Fill-7" fill="#333333"></path>
                <path d="M153.647613,48.3894219 C154.943318,48.3158818 158.54351,47.8045098 159.479004,47.4382701 C161.207728,46.7793308 161.712119,45.3874251 161.712119,43.777334 L161.712119,2.12195003 L159.191122,2.12195003 C157.535686,2.12195003 155.304008,2.19549019 153.647613,2.41464959 C150.549896,2.85442946 146.867795,9.2913846 146.002714,12.5125408 L144,12.5125408 L144,0 L189,0 L189,12.5125408 L187.012614,12.5125408 C186.148491,9.2913846 182.448188,2.85442946 179.351908,2.41464959 C177.695034,2.19549019 175.679866,2.12195003 173.806962,2.12195003 L171.287402,2.12195003 L171.287402,43.4110943 C171.287402,45.0211854 171.862686,46.340038 173.520517,47.0715434 C174.383682,47.4382701 178.056682,48.2433156 179.351908,48.3894219 L179.351908,50 L153.647613,50 L153.647613,48.3894219" id="Fill-8" fill="#333333"></path>
            </g>
        </g>
    </g>
</svg>

<svg width="187" height="50" viewBox="0 0 187 50" xmlns="http://www.w3.org/2000/svg"><title>brand-fastft</title><g fill="none" fill-rule="evenodd"><g fill="#C0282E"><path d="M.812 50l3.95-22.366H0l1.136-6.29H5.9l.433-2.634C7.144 13.925 9.2 10 17.48 10c1.732 0 5.033.269 5.52.43l-1.082 6.022c-.433-.162-1.732-.323-3.031-.323-1.677 0-3.572.538-4.004 3.602l-.27 1.613h6.114l-1.137 6.29h-6.168L9.47 50H.81M34.804 41.226l.948-5.305c-7.006.419-10.113 2.258-10.113 5.147 0 1.524 1.105 2.575 3.213 2.575 2.423 0 4.266-.998 5.952-2.417zM17 42.906c0-7.196 6.373-10.82 19.542-11.451l.105-.683c.37-2.102-.579-3.415-3.634-3.415-2.581 0-5.953 1.05-8.85 2.574l-2.844-5.254C24.006 22.84 29.009 21 34.75 21c8.955 0 11.22 4.676 9.903 11.505L42.81 42.75c-.526 3.047-.737 4.467-.421 6.831H33.96c-.158-1.42-.158-2.627.106-4.098C31.222 48.423 28.009 50 24.796 50 20.213 50 17 47.162 17 42.906zM45 45.401l4.39-4.441c2.141 2.039 5.568 3.658 9.583 3.658 2.195 0 4.229-.68 4.229-2.822 0-4.337-14.133-2.403-14.133-11.234 0-6.792 5.835-9.562 11.136-9.562 6.424 0 10.01 1.62 12.795 3.919l-4.016 4.703c-2.248-1.829-5.086-2.979-8.191-2.979-1.98 0-3.426.784-3.426 2.56 0 4.39 14.187 2.509 14.187 10.922 0 8.099-7.548 9.875-12.688 9.875-7.28 0-11.403-2.038-13.866-4.599M78.574 27.182H74l1.092-6.31h4.574L81.329 11h8.317l-1.611 9.871H95l-1.092 6.311h-7.017l-2.079 12.353c-.52 3.183 0 4.153 3.067 4.153.883 0 2.08-.108 2.703-.323l-.884 6.149c-.624.216-3.586.486-5.354.486-8.369 0-9.044-3.615-8.16-9.063l2.39-13.755z"/></g><path d="M115.61 23.4h5.917c6.413 0 6.761-1.04 7.258-6.085h1.889v14.643h-1.89c-.496-4.996-.795-5.986-7.257-5.986h-5.917v17.414c0 3.562.994 4.353 7.556 4.353v2.177H100V47.74c4.822 0 6.512-.247 6.512-4.106V7.173c0-3.908-1.69-4.106-6.512-4.106V.89h30.823c4.126 0 5.617-.148 6.91-.395v15.138h-2.038c-1.044-10.537-3.182-12.319-12.627-12.319h-7.458V23.4zM186.801.445v15.138h-2.038c-1.044-10.537-3.182-12.318-12.627-12.318h-2.586v40.072c0 3.809 1.442 4.353 7.557 4.353v2.177h-24.31V47.69c6.115 0 7.655-.544 7.655-4.353V3.265h-2.584c-9.446 0-11.534 1.78-12.628 12.318h-2.038V.445c1.292.248 2.784.396 6.91.396h29.779c4.126 0 5.617-.148 6.91-.396z" fill="#333"/></g></svg>
